img/3qubes1.svg

<svg width="75" height="425" viewBox="0 0 75 425" fill="none" xmlns="http://www.w3.org/2000/svg">
<path d="M35.0098 351.4L4.54102 362.826C1.75781 363.852 0 366.488 0 369.418V402.377C0 405.014 1.46484 407.504 3.80859 408.676L34.2773 423.91C36.3281 424.936 38.5254 424.936 40.5762 423.91L71.0449 408.676C73.3887 407.504 74.8535 405.014 74.8535 402.377V369.418C74.8535 366.488 73.0957 363.852 70.3125 362.826L39.8438 351.4C38.3789 350.814 36.6211 350.814 35.0098 351.4ZM37.5 360.482L65.625 371.029V371.176L37.5 382.602L9.375 371.176V371.029L37.5 360.482ZM42.1875 412.631V390.805L65.625 381.283V400.912L42.1875 412.631Z" fill="#1F1915" fill-opacity="0.2"/>
<path d="M35.0098 176.4L4.54102 187.826C1.75781 188.852 0 191.488 0 194.418V227.377C0 230.014 1.46484 232.504 3.80859 233.676L34.2773 248.91C36.3281 249.936 38.5254 249.936 40.5762 248.91L71.0449 233.676C73.3887 232.504 74.8535 230.014 74.8535 227.377V194.418C74.8535 191.488 73.0957 188.852 70.3125 187.826L39.8438 176.4C38.3789 175.814 36.6211 175.814 35.0098 176.4ZM37.5 185.482L65.625 196.029V196.176L37.5 207.602L9.375 196.176V196.029L37.5 185.482ZM42.1875 237.631V215.805L65.625 206.283V225.912L42.1875 237.631Z" fill="#1F1915" fill-opacity="0.2"/>
<path d="M35.0098 1.40039L4.54102 12.8262C1.75781 13.8516 0 16.4883 0 19.418V52.377C0 55.0137 1.46484 57.5039 3.80859 58.6758L34.2773 73.9102C36.3281 74.9355 38.5254 74.9355 40.5762 73.9102L71.0449 58.6758C73.3887 57.5039 74.8535 55.0137 74.8535 52.377V19.418C74.8535 16.4883 73.0957 13.8516 70.3125 12.8262L39.8438 1.40039C38.3789 0.814453 36.6211 0.814453 35.0098 1.40039ZM37.5 10.4824L65.625 21.0293V21.1758L37.5 32.6016L9.375 21.1758V21.0293L37.5 10.4824ZM42.1875 62.6309V40.8047L65.625 31.2832V50.9121L42.1875 62.6309Z" fill="#1F1915" fill-opacity="0.2"/>
</svg>

<svg width="75" height="425" fill="none" xmlns="http://www.w3.org/2000/svg"><path d="M35.01 351.4L4.54 362.826C1.758 363.852 0 366.488 0 369.418v32.959c0 2.637 1.465 5.127 3.809 6.299l30.468 15.234c2.051 1.026 4.248 1.026 6.3 0l30.468-15.234c2.344-1.172 3.808-3.662 3.808-6.299v-32.959c0-2.93-1.757-5.566-4.54-6.592L39.843 351.4c-1.464-.586-3.222-.586-4.833 0zm2.49 9.082l28.125 10.547v.147L37.5 382.602 9.375 371.176v-.147L37.5 360.482zm4.688 52.149v-21.826l23.437-9.522v19.629l-23.438 11.719zM35.01 176.4L4.54 187.826C1.758 188.852 0 191.488 0 194.418v32.959c0 2.637 1.465 5.127 3.809 6.299l30.468 15.234c2.051 1.026 4.248 1.026 6.3 0l30.468-15.234c2.344-1.172 3.808-3.662 3.808-6.299v-32.959c0-2.93-1.757-5.566-4.54-6.592L39.843 176.4c-1.464-.586-3.222-.586-4.833 0zm2.49 9.082l28.125 10.547v.147L37.5 207.602 9.375 196.176v-.147L37.5 185.482zm4.688 52.149v-21.826l23.437-9.522v19.629l-23.438 11.719zM35.01 1.4L4.54 12.826C1.758 13.852 0 16.488 0 19.418v32.959c0 2.637 1.465 5.127 3.809 6.299L34.277 73.91c2.051 1.026 4.248 1.026 6.3 0l30.468-15.234c2.344-1.172 3.808-3.662 3.808-6.299V19.418c0-2.93-1.757-5.566-4.54-6.592L39.843 1.4c-1.464-.586-3.222-.586-4.833 0zm2.49 9.082L65.625 21.03v.147L37.5 32.602 9.375 21.176v-.147L37.5 10.482zm4.688 52.149V40.805l23.437-9.522v19.63L42.187 62.63z" fill="#1F1915" fill-opacity=".2"/></svg>
